www/assets/icons/qr_code.svg

<svg xmlns="http://www.w3.org/2000/svg" width="24" height="24" viewBox="0 0 24 24" fill='currentColor'><path d="M3 11h8V3H3zm2-6h4v4H5zM3 21h8v-8H3zm2-6h4v4H5zm8-12v8h8V3zm6 6h-4V5h4zm2 10h-2v2h2zm-6-6h-2v2h2zm2 2h-2v2h2zm-2 2h-2v2h2zm2 2h-2v2h2zm2-2h-2v2h2zm0-4h-2v2h2zm2 2h-2v2h2z"/></svg>

<svg width="24" height="24" viewBox="0 0 24 24" xmlns="http://www.w3.org/2000/svg" fill='currentColor'><path d="M3 11H11V3H3V11ZM5 5H9V9H5V5Z"/><path d="M3 21H11V13H3V21ZM5 15H9V19H5V15Z"/><path d="M13 3V11H21V3H13ZM19 9H15V5H19V9Z"/><path d="M21 19H19V21H21V19Z"/><path d="M15 13H13V15H15V13Z"/><path d="M17 15H15V17H17V15Z"/><path d="M15 17H13V19H15V17Z"/><path d="M17 19H15V21H17V19Z"/><path d="M19 17H17V19H19V17Z"/><path d="M19 13H17V15H19V13Z"/><path d="M21 15H19V17H21V15Z"/></svg>
